assets/twitter-badge.svg

<svg width="104" height="28" viewBox="0 0 104 28" fill="none" xmlns="http://www.w3.org/2000/svg">
<g clip-path="url(#clip0_115_18)">
<path d="M103.75 0H0V28H103.75V0Z" fill="#21262D"/>
<path d="M47.6885 12.1357H45.418V18H43.543V12.1357H41.2725V10.7295H47.6885V12.1357ZM58.8506 10.7295L56.8926 18H54.8174L53.5137 13.2637L52.2441 18H50.1689L48.2109 10.7295H50.1689L51.2871 15.7344L52.625 10.7295H54.4951L55.7695 15.7344L56.9414 10.7295H58.8506ZM64.0361 18H59.7783V16.7109H60.9697V12.0186H59.7783V10.7295H64.0361V12.0186H62.8447V16.7109H64.0361V18ZM71.2529 12.1357H68.9824V18H67.1074V12.1357H64.8369V10.7295H71.2529V12.1357ZM78.0693 12.1357H75.7988V18H73.9238V12.1357H71.6533V10.7295H78.0693V12.1357ZM84.4561 18H79.1973V10.7295H84.4561V12.1357H81.0625V13.3906H84.2119V14.7969H81.0625V16.5938H84.4561V18ZM90.1104 12.9561C90.1104 12.7738 90.0729 12.6175 89.998 12.4873C89.9232 12.3571 89.7946 12.2546 89.6123 12.1797C89.4854 12.1276 89.3372 12.0967 89.168 12.0869C88.9987 12.0739 88.8018 12.0674 88.5771 12.0674H87.8984V14.0254H88.4746C88.7741 14.0254 89.0247 14.0107 89.2266 13.9814C89.4284 13.9521 89.5977 13.8854 89.7344 13.7812C89.8646 13.6803 89.959 13.5697 90.0176 13.4492C90.0794 13.3255 90.1104 13.1611 90.1104 12.9561ZM93.0352 18H90.7451L88.7627 15.334H87.8984V18H86.0332V10.7295H89.1777C89.6074 10.7295 89.9769 10.7539 90.2861 10.8027C90.5954 10.8516 90.8851 10.9574 91.1553 11.1201C91.4287 11.2829 91.6452 11.4945 91.8047 11.7549C91.9674 12.012 92.0488 12.3359 92.0488 12.7266C92.0488 13.2637 91.9235 13.7015 91.6729 14.04C91.4255 14.3786 91.0706 14.6602 90.6084 14.8848L93.0352 18Z" fill="white"/>
<path d="M31.953 6.57009C31.0545 6.96569 30.1026 7.22683 29.128 7.34509C30.1541 6.72834 30.9224 5.76113 31.291 4.62209C30.34 5.17709 29.286 5.58109 28.164 5.80609C27.4238 5.01452 26.4429 4.48951 25.3736 4.31259C24.3044 4.13567 23.2067 4.31674 22.2509 4.82768C21.2952 5.33862 20.5349 6.15084 20.0881 7.13821C19.6412 8.12558 19.533 9.23286 19.78 10.2881C15.69 10.0951 12.067 8.13009 9.64 5.16209C9.19879 5.9119 8.96866 6.76711 8.974 7.63709C8.974 9.34709 9.844 10.8501 11.162 11.7331C10.3809 11.7082 9.61697 11.497 8.934 11.1171V11.1771C8.93356 12.3135 9.32627 13.415 10.0455 14.2948C10.7647 15.1747 11.7662 15.7786 12.88 16.0041C12.1583 16.1975 11.4024 16.2265 10.668 16.0891C10.9841 17.0671 11.5977 17.922 12.423 18.5346C13.2484 19.1471 14.2444 19.4868 15.272 19.5061C13.5315 20.872 11.3825 21.6134 9.17 21.6111C8.78 21.6111 8.391 21.5881 8 21.5441C10.2557 22.9884 12.8785 23.7551 15.557 23.7531C24.61 23.7531 29.555 16.2571 29.555 9.76809C29.555 9.55809 29.555 9.34809 29.54 9.13809C30.506 8.44295 31.3392 7.57991 32 6.59009L31.953 6.57009Z" fill="white"/>
</g>
<defs>
<clipPath id="clip0_115_18">
<rect width="103.75" height="28" rx="4" fill="white"/>
</clipPath>
</defs>
</svg>

<svg width="104" height="28" fill="none" xmlns="http://www.w3.org/2000/svg"><g clip-path="url(#a)"><path d="M103.75 0H0v28h103.75V0Z" fill="#21262D"/><path d="M47.688 12.136h-2.27V18h-1.875v-5.864h-2.27V10.73h6.415v1.406Zm11.163-1.406L56.893 18h-2.076l-1.303-4.736L52.244 18H50.17l-1.958-7.27h1.958l1.118 5.004 1.338-5.005h1.87l1.275 5.005 1.171-5.005h1.91ZM64.036 18h-4.258v-1.29h1.192V12.02h-1.192v-1.29h4.258v1.29h-1.191v4.692h1.191V18Zm7.217-5.864h-2.27V18h-1.876v-5.864h-2.27V10.73h6.416v1.406Zm6.816 0H75.8V18h-1.875v-5.864h-2.27V10.73h6.415v1.406ZM84.456 18h-5.259v-7.27h5.26v1.406h-3.394v1.255h3.149v1.406h-3.15v1.797h3.394V18Zm5.654-5.044a.925.925 0 0 0-.112-.469c-.075-.13-.203-.232-.386-.307a1.377 1.377 0 0 0-.444-.093 7.826 7.826 0 0 0-.59-.02h-.68v1.958h.577c.3 0 .55-.014.752-.044.201-.029.37-.096.507-.2.13-.1.225-.211.284-.332a1.11 1.11 0 0 0 .092-.493ZM93.035 18h-2.29l-1.982-2.666h-.865V18h-1.865v-7.27h3.145c.43 0 .799.024 1.108.073.31.049.6.154.87.317.273.163.49.375.649.635.162.257.244.58.244.972 0 .537-.126.974-.376 1.313-.248.339-.602.62-1.065.845L93.035 18ZM31.953 6.57a10 10 0 0 1-2.825.775 4.958 4.958 0 0 0 2.163-2.723c-.951.555-2.005.96-3.127 1.184a4.92 4.92 0 0 0-8.384 4.482c-4.09-.193-7.713-2.158-10.14-5.126a4.822 4.822 0 0 0-.666 2.475c0 1.71.87 3.213 2.188 4.096a4.905 4.905 0 0 1-2.228-.616v.06a4.923 4.923 0 0 0 3.946 4.827 4.996 4.996 0 0 1-2.212.085 4.936 4.936 0 0 0 4.604 3.417 9.867 9.867 0 0 1-6.102 2.105c-.39 0-.779-.023-1.17-.067a13.995 13.995 0 0 0 7.557 2.21c9.053 0 13.998-7.497 13.998-13.986 0-.21 0-.42-.015-.63A9.935 9.935 0 0 0 32 6.59l-.047-.02Z" fill="#fff"/></g><defs><clipPath id="a"><rect width="103.75" height="28" rx="4" fill="#fff"/></clipPath></defs></svg>
